_includes/icons/color-defense.svg

<svg fill="#666" height="50" viewBox="0 0 48 48" width="50" xmlns="http://www.w3.org/2000/svg"><path d="m8 25c0 11.933594 16 18 16 18s16-5.972656 16-18c0-4.945312 0-17 0-17-3.945312 0-16-3-16-3s-12.058594 3-16 3z" fill="#c5cae9"/><path d="m40 25c0 11.933594-16 18-16 18v-38s12.058594 3 16 3z" fill="#9fa8da"/><path d="m36 25c0 7.222656-8.554687 12.003906-12.003906 13.636719-3.433594-1.628906-11.996094-6.410156-11.996094-13.636719v-13.394531c4.191406-.636719 9.550781-1.890625 12-2.488281 2.449219.597656 7.8125 1.851562 12 2.488281z" fill="#f44336"/><path d="m36 25.03125c0 7.222656-8.554687 12-12.003906 13.636719l.003906-29.519531c2.449219.59375 7.8125 1.851562 12 2.488281z" fill="#e53935"/><g fill="#9fa8da"><path d="m11 11c0 .550781-.449219 1-1 1s-1-.449219-1-1 .449219-1 1-1 1 .449219 1 1z"/><path d="m18 9c0 .550781-.449219 1-1 1s-1-.449219-1-1 .449219-1 1-1 1 .449219 1 1z"/><path d="m25 7c0 .550781-.449219 1-1 1s-1-.449219-1-1 .449219-1 1-1 1 .449219 1 1z"/><path d="m11 17c0 .550781-.449219 1-1 1s-1-.449219-1-1 .449219-1 1-1 1 .449219 1 1z"/><path d="m11 23c0 .550781-.449219 1-1 1s-1-.449219-1-1 .449219-1 1-1 1 .449219 1 1z"/><path d="m12 29c0 .550781-.449219 1-1 1s-1-.449219-1-1 .449219-1 1-1 1 .449219 1 1z"/><path d="m15 34c0 .550781-.449219 1-1 1s-1-.449219-1-1 .449219-1 1-1 1 .449219 1 1z"/><path d="m20 38c0 .550781-.449219 1-1 1s-1-.449219-1-1 .449219-1 1-1 1 .449219 1 1z"/></g><g fill="#7986cb"><path d="m39 11c0 .550781-.449219 1-1 1s-1-.449219-1-1 .449219-1 1-1 1 .449219 1 1z"/><path d="m32 9c0 .550781-.449219 1-1 1s-1-.449219-1-1 .449219-1 1-1 1 .449219 1 1z"/><path d="m39 17c0 .550781-.449219 1-1 1s-1-.449219-1-1 .449219-1 1-1 1 .449219 1 1z"/><path d="m39 23c0 .550781-.449219 1-1 1s-1-.449219-1-1 .449219-1 1-1 1 .449219 1 1z"/><path d="m38 29c0 .550781-.449219 1-1 1s-1-.449219-1-1 .449219-1 1-1 1 .449219 1 1z"/><path d="m35 34c0 .550781-.449219 1-1 1s-1-.449219-1-1 .449219-1 1-1 1 .449219 1 1z"/><path d="m30 38c0 .550781-.449219 1-1 1s-1-.449219-1-1 .449219-1 1-1 1 .449219 1 1z"/></g><path d="m24 25.839844 12-8.160156v-4l-12 8.160156z" fill="#ffcdd2"/><path d="m24 21.839844-10.957031 7.449219c.484375.988281 1.097656 1.914062 1.816406 2.765625l9.136719-6.214844z" fill="#fff"/><path d="m20 17-2 2.5-2-2.5 2-2.5z" fill="#fff"/><path d="m32 29-2 2.5-2-2.5 2-2.5z" fill="#ffcdd2"/></svg>

<svg xmlns="http://www.w3.org/2000/svg" viewBox="0 0 48 48" width="50" height="50" fill="#666"><path d="M 8 25 C 8 36.933594 24 43 24 43 C 24 43 40 37.027344 40 25 C 40 20.054688 40 8 40 8 C 36.054688 8 24 5 24 5 C 24 5 11.941406 8 8 8 C 8 8 8 20.054688 8 25 Z" fill="#c5cae9"/><path d="M 40 25 C 40 36.933594 24 43 24 43 L 24 5 C 24 5 36.058594 8 40 8 C 40 8 40 20.054688 40 25 Z" fill="#9fa8da"/><path d="M 36 25 C 36 32.222656 27.445313 37.003906 23.996094 38.636719 C 20.5625 37.007813 12 32.226563 12 25 L 12 11.605469 C 16.191406 10.96875 21.550781 9.714844 24 9.117188 C 26.449219 9.714844 31.8125 10.96875 36 11.605469 Z" fill="#f44336"/><path d="M 36 25.03125 C 36 32.253906 27.445313 37.03125 23.996094 38.667969 L 24 9.148438 C 26.449219 9.742188 31.8125 11 36 11.636719 Z" fill="#e53935"/><path d="M 11 11 C 11 11.550781 10.550781 12 10 12 C 9.449219 12 9 11.550781 9 11 C 9 10.449219 9.449219 10 10 10 C 10.550781 10 11 10.449219 11 11 Z" fill="#9fa8da"/><path d="M 18 9 C 18 9.550781 17.550781 10 17 10 C 16.449219 10 16 9.550781 16 9 C 16 8.449219 16.449219 8 17 8 C 17.550781 8 18 8.449219 18 9 Z" fill="#9fa8da"/><path d="M 25 7 C 25 7.550781 24.550781 8 24 8 C 23.449219 8 23 7.550781 23 7 C 23 6.449219 23.449219 6 24 6 C 24.550781 6 25 6.449219 25 7 Z" fill="#9fa8da"/><path d="M 11 17 C 11 17.550781 10.550781 18 10 18 C 9.449219 18 9 17.550781 9 17 C 9 16.449219 9.449219 16 10 16 C 10.550781 16 11 16.449219 11 17 Z" fill="#9fa8da"/><path d="M 11 23 C 11 23.550781 10.550781 24 10 24 C 9.449219 24 9 23.550781 9 23 C 9 22.449219 9.449219 22 10 22 C 10.550781 22 11 22.449219 11 23 Z" fill="#9fa8da"/><path d="M 12 29 C 12 29.550781 11.550781 30 11 30 C 10.449219 30 10 29.550781 10 29 C 10 28.449219 10.449219 28 11 28 C 11.550781 28 12 28.449219 12 29 Z" fill="#9fa8da"/><path d="M 15 34 C 15 34.550781 14.550781 35 14 35 C 13.449219 35 13 34.550781 13 34 C 13 33.449219 13.449219 33 14 33 C 14.550781 33 15 33.449219 15 34 Z" fill="#9fa8da"/><path d="M 20 38 C 20 38.550781 19.550781 39 19 39 C 18.449219 39 18 38.550781 18 38 C 18 37.449219 18.449219 37 19 37 C 19.550781 37 20 37.449219 20 38 Z" fill="#9fa8da"/><path d="M 39 11 C 39 11.550781 38.550781 12 38 12 C 37.449219 12 37 11.550781 37 11 C 37 10.449219 37.449219 10 38 10 C 38.550781 10 39 10.449219 39 11 Z" fill="#7986cb"/><path d="M 32 9 C 32 9.550781 31.550781 10 31 10 C 30.449219 10 30 9.550781 30 9 C 30 8.449219 30.449219 8 31 8 C 31.550781 8 32 8.449219 32 9 Z" fill="#7986cb"/><path d="M 39 17 C 39 17.550781 38.550781 18 38 18 C 37.449219 18 37 17.550781 37 17 C 37 16.449219 37.449219 16 38 16 C 38.550781 16 39 16.449219 39 17 Z" fill="#7986cb"/><path d="M 39 23 C 39 23.550781 38.550781 24 38 24 C 37.449219 24 37 23.550781 37 23 C 37 22.449219 37.449219 22 38 22 C 38.550781 22 39 22.449219 39 23 Z" fill="#7986cb"/><path d="M 38 29 C 38 29.550781 37.550781 30 37 30 C 36.449219 30 36 29.550781 36 29 C 36 28.449219 36.449219 28 37 28 C 37.550781 28 38 28.449219 38 29 Z" fill="#7986cb"/><path d="M 35 34 C 35 34.550781 34.550781 35 34 35 C 33.449219 35 33 34.550781 33 34 C 33 33.449219 33.449219 33 34 33 C 34.550781 33 35 33.449219 35 34 Z" fill="#7986cb"/><path d="M 30 38 C 30 38.550781 29.550781 39 29 39 C 28.449219 39 28 38.550781 28 38 C 28 37.449219 28.449219 37 29 37 C 29.550781 37 30 37.449219 30 38 Z" fill="#7986cb"/><path d="M 24 25.839844 L 36 17.679688 L 36 13.679688 L 24 21.839844 Z" fill="#ffcdd2"/><path d="M 24 21.839844 L 13.042969 29.289063 C 13.527344 30.277344 14.140625 31.203125 14.859375 32.054688 L 23.996094 25.839844 Z" fill="#fff"/><path d="M 20 17 L 18 19.5 L 16 17 L 18 14.5 Z" fill="#fff"/><path d="M 32 29 L 30 31.5 L 28 29 L 30 26.5 Z" fill="#ffcdd2"/></svg>
